X: 1
T:Hanter Dro
R:Hanter Dro
C:Storvan
M:3/4
L:1/16
K:C
e2fe c2d2 e2d2|e2fe c2d2 e2 d2|e2fe c2d2 e4 :|
|:e2fe c2d2 c2cd|e2dc B2Bd c2A2|\
e2fe c2d2 c2cd|e2dc BABc A4  :|
